resources/svg/border-radius-o.svg

<svg xmlns="http://www.w3.org/2000/svg" viewBox="0 0 15 15" fill="none"><path d="M10 1.5H11M13 1.5H14M13 4.5H14M13 7.5H14M13 10.5H14M13 13.5H14M10 13.5H11M7 13.5H8M4 13.5H5M1 13.5H2M1 10.5H2M1.5 8V5.5C1.5 3.29086 3.29086 1.5 5.5 1.5H8" stroke="black"/></svg>

<svg xmlns="http://www.w3.org/2000/svg" viewBox="0 0 15 15" fill="none"><path d="M10 1.5h1m2 0h1m-1 3h1m-1 3h1m-1 3h1m-1 3h1m-4 0h1m-4 0h1m-4 0h1m-4 0h1m-1-3h1M1.5 8V5.5a4 4 0 014-4H8" stroke="currentColor"/></svg>
